X: 20232
T: LIEUT. SHIELD'S GRAND MARCH
C:
%R: march
B: Elias Howe "The Musician's Companion" 1843 p.23 #2
S: http://imslp.org/wiki/The_Musician's_Companion_(Howe,_Elias)
Z: 2015 John Chambers <jc:trillian.mit.edu>
N: Bar 2 has onl 3 beats; fixed by making it like bar 6, and lengthening the last notes of bar 3 to match bars 7 and  15.
N: Other solutions to this awkward missing beat are possible.
N: Note that the 2nd strain has 9 bars.
M: C
L: 1/8
K: D
% - - - - - - - - - - - - - - - - - - - - - - - - -
d/e/f/g/ |\
f2 f>f f2 ef | a2 gg gf fe | g^g a^a b2 g2 | f4 {e2gf}e2 z2 |\
f2 f>f f2 ef | a2 gg gf fe | ab g/f/g/e/ d2c2 | d2 d>d d2 |]
(3(abc') |\
[d'4d4] a4 | f2 d2 f2 a2 | d'2 a2 z2 c/d/e/f/ | g2 A,>A, A,2 d/e/f/g/ |\
a2 D>D D2 fg | bagf edcB | ADCD B,g fg | ef/g/ a/g/f/e/ d2c2 | d2 d>d d2 |]
% - - - - - - - - - - - - - - - - - - - - - - - - -

%%sep 1 1 500

